; generated by PrusaSlicer 2.3.0+win64 on 2021-03-02 at 19:07:07 UTC

; 

; external perimeters extrusion width = 0.45mm
; perimeters extrusion width = 0.45mm
; infill extrusion width = 0.45mm
; solid infill extrusion width = 0.45mm
; top infill extrusion width = 0.40mm
; first layer extrusion width = 0.42mm

M73 P0 R71
M73 Q0 S71
M201 X1000 Y1000 Z200 E5000 ; sets maximum accelerations, mm/sec^2
M203 X200 Y200 Z12 E120 ; sets maximum feedrates, mm/sec
M204 P1250 R1250 T1250 ; sets acceleration (P, T) and retract acceleration (R), mm/sec^2
M205 X8.00 Y8.00 Z0.40 E4.50 ; sets the jerk limits, mm/sec
M205 S0 T0 ; sets the minimum extruding and travel feed rate, mm/sec
M107
;TYPE:Custom
M862.3 P "MK3S" ; printer model check
M862.1 P0.4 ; nozzle diameter check
M115 U3.9.2 ; tell printer latest fw version
G90 ; use absolute coordinates
M83 ; extruder relative mode
M104 S215 ; set extruder temp
M140 S60 ; set bed temp
M190 S60 ; wait for bed temp
M109 S215 ; wait for extruder temp
G28 W ; home all without mesh bed level
G80 ; mesh bed leveling
G1 Y-3.0 F1000.0 ; go outside print area
G92 E0.0
G1 X60.0 E9.0 F1000.0 ; intro line
M73 P0 R70
G1 X100.0 E12.5 F1000.0 ; intro line
G92 E0.0
M221 S100

; Don't change E values below. Excessive value can damage the printer.
M907 E430 ; set extruder motor current
G21 ; set units to millimeters
G90 ; use absolute coordinates
M83 ; use relative distances for extrusion
M900 K0.05 ; Filament gcode LA 1.5
M900 K30 ; Filament gcode LA 1.0
;LAYER_CHANGE
;Z:0.2
;HEIGHT:0.2
;BEFORE_LAYER_CHANGE
G92 E0.0
;0.2


G1 E-0.80000 F2100.000
G1 Z0.400 F10800.000
;AFTER_LAYER_CHANGE
;0.2
G1 X96.916 Y74.624
G1 Z0.200
G1 E0.80000 F2100.000
M204 S500
;TYPE:Skirt
;WIDTH:0.42
G1 F1200.000
G1 X101.277 Y70.224 E0.19426
G1 X101.874 Y69.839 E0.02225
G1 X102.557 Y69.647 E0.02225
G1 X137.202 Y69.629 E1.08628
M73 Q0 S70
G1 X138.062 Y69.792 E0.02743
G1 X138.805 Y70.254 E0.02743
G1 X141.015 Y72.310 E0.09466
G1 X147.042 Y78.336 E0.26722
G1 X147.555 Y79.117 E0.02931
G1 X165.630 Y127.321 E1.61417
G1 X165.727 Y127.971 E0.02060
G1 X165.726 Y138.062 E0.31640
G1 X165.604 Y138.750 E0.02190
G1 X165.284 Y139.375 E0.02201
G1 X164.940 Y139.761 E0.01621
G1 X164.524 Y140.061 E0.01609
G1 X164.053 Y140.265 E0.01609
G1 X163.549 Y140.363 E0.01609
G1 X153.342 Y140.371 E0.32002
G1 X94.624 Y139.156 E1.84147
G1 X93.697 Y138.931 E0.02989
G1 X89.274 Y136.636 E0.15624
G1 X86.660 Y134.049 E0.11531
G1 X84.376 Y129.394 E0.16256
G1 X84.273 Y128.723 E0.02130
G1 X84.291 Y120.317 E0.26355
G1 X90.395 Y97.684 E0.73501
G1 X96.559 Y75.373 E0.72575
G1 X96.890 Y74.678 E0.02414
M204 S1000
; printing object hamster.stl id:0 copy 0
;WIPE_START
G1 F8640.000
G1 X99.200 Y72.333 E-0.76000
;WIPE_END
G1 E-0.04000 F2100.000
G1 Z0.600 F10800.000
G1 X154.689 Y129.342
G1 Z0.200
G1 E0.80000 F2100.000
M204 S500
;TYPE:Perimeter
G1 F1200.000
G1 X162.014 Y129.342 E0.22968
G1 X162.014 Y136.658 E0.22938
G1 X154.671 Y136.658 E0.23025
G1 X154.689 Y129.402 E0.22750
M204 S1000
G1 X155.065 Y129.719 F10800.000
M204 S500
G1 F1200.000
G1 X161.637 Y129.719 E0.20607
G1 X161.637 Y136.281 E0.20574
G1 X155.049 Y136.281 E0.20658
G1 X155.065 Y129.779 E0.20386
M204 S1000
G1 X155.441 Y130.096 F10800.000
M204 S500
;TYPE:External perimeter
G1 F1200.000
G1 X161.260 Y130.096 E0.18245
G1 X161.260 Y135.904 E0.18209
G1 X155.427 Y135.904 E0.18290
G1 X155.441 Y130.156 E0.18021
M204 S1000
G1 X155.337 Y129.710 F10800.000
;WIPE_START
G1 F8640.000
G1 X158.732 Y130.122 E-0.76000
;WIPE_END
G1 E-0.04000 F2100.000
G1 Z0.600 F10800.000
G1 X156.186 Y129.158
G1 Z0.200
G1 E0.80000 F2100.000
M204 S500
;TYPE:Perimeter
G1 F1200.000
G1 X162.186 Y129.158 E0.18813
G1 X162.186 Y136.830 E0.24054
G1 X154.514 Y136.830 E0.24054
G1 X154.514 Y133.572 E0.10215
G1 X148.186 Y133.572 E0.19842
G1 X148.186 Y135.617 E0.06412
G1 X142.514 Y135.617 E0.17783
G1 X142.514 Y133.572 E0.06412
G1 X138.339 Y133.572 E0.13090
G1 X138.339 Y131.593 E0.06204
G1 X136.514 Y131.593 E0.05722
G1 X136.514 Y127.553 E0.12668
G1 X134.365 Y127.553 E0.06737
G1 X134.365 Y125.558 E0.06256
G1 X130.009 Y125.558 E0.13660
G1 X130.009 Y129.548 E0.12511
G1 X128.280 Y129.548 E0.05420
G1 X128.280 Y127.553 E0.06256
G1 X123.857 Y127.553 E0.13869
G1 X123.857 Y129.531 E0.06204
G1 X122.162 Y129.531 E0.05315
G1 X122.162 Y127.570 E0.06151
G1 X114.164 Y127.570 E0.25075
G1 X114.164 Y125.508 E0.06464
G1 X109.686 Y125.508 E0.14042
G1 X109.686 Y127.570 E0.06464
G1 X107.686 Y127.570 E0.06271
G1 X107.686 Y131.560 E0.12511
G1 X105.686 Y131.560 E0.06271
G1 X105.686 Y133.538 E0.06204
G1 X101.686 Y133.538 E0.12542
G1 X101.686 Y135.617 E0.06516
G1 X95.875 Y135.617 E0.18219
G1 X95.875 Y133.538 E0.06516
G1 X91.822 Y133.538 E0.12708
G1 X91.822 Y131.551 E0.06232
G1 X89.792 Y131.551 E0.06364
G1 X89.792 Y127.537 E0.12586
G1 X87.814 Y127.537 E0.06202
G1 X87.814 Y121.770 E0.18080
G1 X89.814 Y121.770 E0.06271
G1 X89.814 Y117.670 E0.12855
G1 X91.814 Y117.670 E0.06271
G1 X91.814 Y115.670 E0.06271
G1 X95.914 Y115.670 E0.12855
G1 X95.914 Y113.670 E0.06271
G1 X97.866 Y113.670 E0.06121
G1 X97.866 Y103.342 E0.32384
G1 X95.851 Y103.342 E0.06318
G1 X95.851 Y99.473 E0.12130
G1 X96.014 Y99.473 E0.00511
G1 X96.014 Y97.426 E0.06420
G1 X98.014 Y97.426 E0.06271
G1 X98.014 Y95.395 E0.06369
G1 X100.014 Y95.395 E0.06271
G1 X100.014 Y93.363 E0.06369
G1 X104.014 Y93.363 E0.12542
G1 X104.014 Y82.842 E0.32988
G1 X102.014 Y82.842 E0.06271
G1 X102.014 Y75.170 E0.24054
G1 X104.014 Y75.170 E0.06271
G1 X104.014 Y73.170 E0.06271
G1 X136.034 Y73.170 E1.00397
G1 X136.034 Y75.170 E0.06271
G1 X138.186 Y75.170 E0.06746
G1 X138.186 Y77.170 E0.06271
G1 X140.186 Y77.170 E0.06271
G1 X140.186 Y79.170 E0.06271
G1 X142.186 Y79.170 E0.06271
G1 X142.186 Y87.012 E0.24586
G1 X140.186 Y87.012 E0.06271
G1 X140.186 Y95.448 E0.26451
G1 X144.186 Y95.448 E0.12542
G1 X144.186 Y97.476 E0.06360
G1 X146.186 Y97.476 E0.06271
G1 X146.186 Y99.505 E0.06360
G1 X148.186 Y99.505 E0.06271
G1 X148.186 Y105.342 E0.18303
G1 X146.186 Y105.342 E0.06271
G1 X146.186 Y113.670 E0.26113
G1 X148.186 Y113.670 E0.06271
M73 Q1 S70
G1 X148.186 Y115.670 E0.06271
G1 X152.186 Y115.670 E0.12542
M73 P1 R70
G1 X152.186 Y117.670 E0.06271
G1 X154.186 Y117.670 E0.06271
G1 X154.186 Y121.834 E0.13055
G1 X156.186 Y121.834 E0.06271
G1 X156.186 Y129.098 E0.22775
M204 S1000
G1 X156.563 Y128.781 F10800.000
M204 S500
G1 F1200.000
G1 X162.563 Y128.781 E0.18813
G1 X162.563 Y137.207 E0.26419
G1 X154.137 Y137.207 E0.26419
G1 X154.137 Y133.949 E0.10215
G1 X148.563 Y133.949 E0.17477
G1 X148.563 Y135.994 E0.06412
G1 X142.137 Y135.994 E0.20148
G1 X142.137 Y133.949 E0.06412
G1 X137.962 Y133.949 E0.13090
G1 X137.962 Y131.970 E0.06204
G1 X136.137 Y131.970 E0.05722
G1 X136.137 Y127.930 E0.12668
G1 X133.988 Y127.930 E0.06737
G1 X133.988 Y125.935 E0.06256
G1 X130.386 Y125.935 E0.11296
G1 X130.386 Y129.925 E0.12511
G1 X127.903 Y129.925 E0.07784
G1 X127.903 Y127.930 E0.06256
G1 X124.234 Y127.930 E0.11504
G1 X124.234 Y131.920 E0.12511
G1 X123.896 Y131.920 E0.01059
G1 X123.896 Y129.909 E0.06308
G1 X121.785 Y129.909 E0.06621
G1 X121.785 Y127.947 E0.06151
G1 X113.787 Y127.947 E0.25075
G1 X113.787 Y125.885 E0.06464
G1 X110.063 Y125.885 E0.11677
G1 X110.063 Y127.947 E0.06464
G1 X108.063 Y127.947 E0.06271
G1 X108.063 Y131.937 E0.12511
G1 X106.063 Y131.937 E0.06271
G1 X106.063 Y133.916 E0.06204
G1 X102.063 Y133.916 E0.12542
G1 X102.063 Y135.994 E0.06516
G1 X95.498 Y135.994 E0.20583
G1 X95.498 Y133.916 E0.06516
G1 X91.445 Y133.916 E0.12708
G1 X91.445 Y131.928 E0.06232
G1 X89.415 Y131.928 E0.06364
G1 X89.415 Y127.914 E0.12586
G1 X87.437 Y127.914 E0.06202
G1 X87.437 Y121.393 E0.20445
G1 X89.437 Y121.393 E0.06271
G1 X89.437 Y117.293 E0.12855
G1 X91.437 Y117.293 E0.06271
G1 X91.437 Y115.293 E0.06271
G1 X95.537 Y115.293 E0.12855
G1 X95.537 Y113.293 E0.06271
G1 X97.489 Y113.293 E0.06121
G1 X97.489 Y103.719 E0.30019
G1 X95.474 Y103.719 E0.06318
G1 X95.474 Y99.537 E0.13112
G1 X93.475 Y99.537 E0.06267
G1 X93.475 Y99.096 E0.01382
G1 X95.637 Y99.096 E0.06778
G1 X95.637 Y97.049 E0.06420
G1 X97.637 Y97.049 E0.06271
G1 X97.637 Y95.017 E0.06369
G1 X99.637 Y95.017 E0.06271
G1 X99.637 Y92.986 E0.06369
G1 X103.637 Y92.986 E0.12542
G1 X103.637 Y83.219 E0.30624
G1 X101.637 Y83.219 E0.06271
G1 X101.637 Y77.219 E0.18813
G1 X99.637 Y77.219 E0.06271
G1 X99.637 Y76.793 E0.01335
G1 X101.637 Y76.793 E0.06271
G1 X101.637 Y74.793 E0.06271
G1 X103.637 Y74.793 E0.06271
G1 X103.637 Y72.793 E0.06271
G1 X136.411 Y72.793 E1.02761
G1 X136.411 Y74.793 E0.06271
G1 X138.563 Y74.793 E0.06746
G1 X138.563 Y76.793 E0.06271
G1 X140.563 Y76.793 E0.06271
G1 X140.563 Y78.793 E0.06271
G1 X142.563 Y78.793 E0.06271
G1 X142.563 Y80.793 E0.06271
G1 X144.563 Y80.793 E0.06271
G1 X144.563 Y81.219 E0.01335
G1 X142.563 Y81.219 E0.06271
G1 X142.563 Y87.389 E0.19345
G1 X140.563 Y87.389 E0.06271
G1 X140.563 Y95.071 E0.24086
G1 X144.563 Y95.071 E0.12542
G1 X144.563 Y97.099 E0.06360
G1 X146.563 Y97.099 E0.06271
G1 X146.563 Y99.128 E0.06360
G1 X148.563 Y99.128 E0.06271
G1 X148.563 Y101.123 E0.06256
G1 X150.563 Y101.123 E0.06271
G1 X150.563 Y101.560 E0.01372
G1 X148.563 Y101.560 E0.06271
G1 X148.563 Y105.719 E0.13039
G1 X146.563 Y105.719 E0.06271
G1 X146.563 Y113.293 E0.23748
G1 X148.563 Y113.293 E0.06271
G1 X148.563 Y115.293 E0.06271
M73 P1 R69
G1 X152.563 Y115.293 E0.12542
G1 X152.563 Y117.293 E0.06271
G1 X154.563 Y117.293 E0.06271
G1 X154.563 Y121.457 E0.13055
G1 X156.563 Y121.457 E0.06271
G1 X156.563 Y128.721 E0.22775
M204 S1000
G1 X156.940 Y128.404 F10800.000
M204 S500
;TYPE:External perimeter
G1 F1200.000
G1 X162.940 Y128.404 E0.18813
G1 X162.940 Y137.584 E0.28783
G1 X153.760 Y137.584 E0.28783
G1 X153.760 Y134.326 E0.10215
G1 X148.940 Y134.326 E0.15113
G1 X148.940 Y136.371 E0.06412
G1 X141.760 Y136.371 E0.22512
G1 X141.760 Y134.326 E0.06412
G1 X137.585 Y134.326 E0.13090
G1 X137.585 Y132.347 E0.06204
G1 X135.760 Y132.347 E0.05722
G1 X135.760 Y128.307 E0.12668
G1 X133.611 Y128.307 E0.06737
G1 X133.611 Y126.312 E0.06256
G1 X130.763 Y126.312 E0.08931
G1 X130.763 Y130.302 E0.12511
G1 X127.526 Y130.302 E0.10149
G1 X127.526 Y128.307 E0.06256
G1 X124.611 Y128.307 E0.09140
G1 X124.611 Y132.297 E0.12511
G1 X123.519 Y132.297 E0.03424
G1 X123.519 Y130.286 E0.06308
G1 X121.407 Y130.286 E0.06621
G1 X121.407 Y128.324 E0.06151
G1 X113.410 Y128.324 E0.25075
M73 Q1 S69
G1 X113.410 Y126.262 E0.06464
G1 X110.440 Y126.262 E0.09313
G1 X110.440 Y128.324 E0.06464
G1 X108.440 Y128.324 E0.06271
G1 X108.440 Y132.314 E0.12511
G1 X106.440 Y132.314 E0.06271
G1 X106.440 Y134.293 E0.06204
G1 X102.440 Y134.293 E0.12542
G1 X102.440 Y136.371 E0.06516
G1 X95.121 Y136.371 E0.22948
G1 X95.121 Y134.293 E0.06516
G1 X91.068 Y134.293 E0.12708
G1 X91.068 Y132.305 E0.06232
G1 X89.038 Y132.305 E0.06364
G1 X89.038 Y128.291 E0.12586
G1 X87.060 Y128.291 E0.06202
G1 X87.060 Y121.016 E0.22810
G1 X89.060 Y121.016 E0.06271
G1 X89.060 Y116.916 E0.12855
G1 X91.060 Y116.916 E0.06271
G1 X91.060 Y114.916 E0.06271
G1 X95.160 Y114.916 E0.12855
G1 X95.160 Y112.916 E0.06271
G1 X97.112 Y112.916 E0.06121
G1 X97.112 Y104.096 E0.27654
G1 X95.097 Y104.096 E0.06318
G1 X95.097 Y99.914 E0.13112
G1 X93.098 Y99.914 E0.06267
G1 X93.098 Y98.719 E0.03747
G1 X95.260 Y98.719 E0.06778
G1 X95.260 Y96.672 E0.06420
G1 X97.260 Y96.672 E0.06271
G1 X97.260 Y94.640 E0.06369
G1 X99.260 Y94.640 E0.06271
G1 X99.260 Y92.609 E0.06369
G1 X103.260 Y92.609 E0.12542
G1 X103.260 Y83.596 E0.28259
G1 X101.260 Y83.596 E0.06271
G1 X101.260 Y77.596 E0.18813
G1 X99.260 Y77.596 E0.06271
G1 X99.260 Y76.416 E0.03700
G1 X101.260 Y76.416 E0.06271
G1 X101.260 Y74.416 E0.06271
G1 X103.260 Y74.416 E0.06271
G1 X103.260 Y72.416 E0.06271
G1 X136.788 Y72.416 E1.05126
G1 X136.788 Y74.416 E0.06271
G1 X138.940 Y74.416 E0.06746
G1 X138.940 Y76.416 E0.06271
G1 X140.940 Y76.416 E0.06271
G1 X140.940 Y78.416 E0.06271
G1 X142.940 Y78.416 E0.06271
G1 X142.940 Y80.416 E0.06271
G1 X144.940 Y80.416 E0.06271
G1 X144.940 Y81.596 E0.03700
G1 X142.940 Y81.596 E0.06271
G1 X142.940 Y87.766 E0.19345
G1 X140.940 Y87.766 E0.06271
G1 X140.940 Y94.694 E0.21722
G1 X144.940 Y94.694 E0.12542
G1 X144.940 Y96.722 E0.06360
G1 X146.940 Y96.722 E0.06271
G1 X146.940 Y98.751 E0.06360
G1 X148.940 Y98.751 E0.06271
G1 X148.940 Y100.746 E0.06256
G1 X150.940 Y100.746 E0.06271
G1 X150.940 Y101.938 E0.03737
G1 X148.940 Y101.938 E0.06271
G1 X148.940 Y106.096 E0.13039
G1 X146.940 Y106.096 E0.06271
G1 X146.940 Y112.916 E0.21384
G1 X148.940 Y112.916 E0.06271
G1 X148.940 Y114.916 E0.06271
G1 X152.940 Y114.916 E0.12542
G1 X152.940 Y116.916 E0.06271
G1 X154.940 Y116.916 E0.06271
G1 X154.940 Y121.080 E0.13055
G1 X156.940 Y121.080 E0.06271
G1 X156.940 Y128.344 E0.22775
M204 S1000
G1 X156.975 Y128.802 F10800.000
;WIPE_START
G1 F8640.000
G1 X160.231 Y128.377 E-0.76000
;WIPE_END
G1 E-0.04000 F2100.000
G1 Z0.600 F10800.000
G1 X150.374 Y101.342
G1 Z0.200
G1 E0.80000 F2100.000
M204 S500
;TYPE:Gap fill
;WIDTH:0.103484
G1 F1200.000
G1 X148.374 Y101.342 E0.01007
M204 S1000
;WIPE_START
G1 F8640.000
G1 X150.374 Y101.342 E-0.46180
;WIPE_END
G1 E-0.33820 F2100.000
G1 Z0.600 F10800.000
G1 X148.073 Y99.969
G1 Z0.200
G1 E0.80000 F2100.000
M204 S500
;TYPE:Solid infill
;WIDTH:0.421483
G1 F1200.000
G1 X147.892 Y99.788 E0.00806
G1 X147.356 Y99.788 E0.01685
G1 X147.903 Y100.334 E0.02434
G1 X147.903 Y100.870 E0.01685
G1 X146.651 Y99.618 E0.05572
M204 S1000
;WIPE_START
G1 F8640.000
G1 X147.903 Y100.870 E-0.40875
G1 X147.903 Y100.334 E-0.12362
G1 X147.356 Y99.788 E-0.17851
G1 X147.569 Y99.788 E-0.04912
;WIPE_END
G1 E-0.04000 F2100.000
G1 Z0.600 F10800.000
G1 X146.073 Y97.969
G1 Z0.200
G1 E0.80000 F2100.000
M204 S500
G1 F1200.000
G1 X145.863 Y97.759 E0.00932
G1 X145.328 Y97.759 E0.01685
G1 X145.903 Y98.334 E0.02560
G1 X145.903 Y98.870 E0.01685
G1 X144.623 Y97.589 E0.05699
M204 S1000
;WIPE_START
G1 F8640.000
G1 X145.903 Y98.870 E-0.41803
G1 X145.903 Y98.334 E-0.12362
G1 X145.328 Y97.759 E-0.18780
G1 X145.460 Y97.759 E-0.03056
;WIPE_END
G1 E-0.04000 F2100.000
G1 Z0.600 F10800.000
G1 X144.073 Y95.969
G1 Z0.200
G1 E0.80000 F2100.000
M204 S500
G1 F1200.000
G1 X143.835 Y95.731 E0.01059
G1 X143.300 Y95.731 E0.01685
G1 X143.903 Y96.334 E0.02687
G1 X143.903 Y96.870 E0.01685
G1 X142.764 Y95.731 E0.05070
M73 Q2 S69
G1 X142.229 Y95.731 E0.01685
G1 X143.903 Y97.405 E0.07453
G1 X143.903 Y97.759 E0.01115
M73 P2 R69
G1 X144.257 Y97.759 E0.01115
G1 X145.903 Y99.405 E0.07327
G1 X145.903 Y99.788 E0.01204
G1 X146.286 Y99.788 E0.01204
G1 X147.903 Y101.405 E0.07200
G1 X147.903 Y101.940 E0.01685
G1 X141.693 Y95.731 E0.27643
G1 X141.158 Y95.731 E0.01685
G1 X147.903 Y102.476 E0.30026
G1 X147.903 Y103.011 E0.01685
G1 X140.453 Y95.561 E0.33165
M204 S1000
;WIPE_START
G1 F8640.000
G1 X142.780 Y97.888 E-0.76000
;WIPE_END
G1 E-0.04000 F2100.000
G1 Z0.600 F10800.000
G1 X142.073 Y80.049
G1 Z0.200
G1 E0.80000 F2100.000
M204 S500
G1 F1200.000
G1 X141.477 Y79.453 E0.02652
G1 X140.942 Y79.453 E0.01685
G1 X142.073 Y80.584 E0.05035
M204 S1000
;WIPE_START
G1 F8640.000
G1 X140.942 Y79.453 E-0.36936
G1 X141.477 Y79.453 E-0.12362
G1 X142.073 Y80.049 E-0.19453
;WIPE_END
G1 E-0.11249 F2100.000
G1 Z0.600 F10800.000
G1 X140.073 Y78.049
G1 Z0.200
G1 E0.80000 F2100.000
M204 S500
G1 F1200.000
G1 X139.477 Y77.453 E0.02652
G1 X138.942 Y77.453 E0.01685
G1 X140.073 Y78.584 E0.05035
M204 S1000
;WIPE_START
G1 F8640.000
G1 X138.942 Y77.453 E-0.36936
G1 X139.477 Y77.453 E-0.12362
G1 X140.073 Y78.049 E-0.19453
;WIPE_END
G1 E-0.11249 F2100.000
G1 Z0.600 F10800.000
G1 X137.307 Y75.283
G1 Z0.200
G1 E0.80000 F2100.000
M204 S500
G1 F1200.000
G1 X137.903 Y75.879 E0.02652
G1 X137.903 Y76.415 E0.01685
G1 X136.942 Y75.453 E0.04280
G1 X136.406 Y75.453 E0.01685
G1 X137.903 Y76.950 E0.06663
G1 X137.903 Y77.453 E0.01584
G1 X138.406 Y77.453 E0.01584
G1 X139.903 Y78.950 E0.06663
G1 X139.903 Y79.453 E0.01584
G1 X140.406 Y79.453 E0.01584
G1 X142.073 Y81.120 E0.07418
M204 S1000
;WIPE_START
G1 F8640.000
G1 X140.406 Y79.453 E-0.54418
G1 X139.903 Y79.453 E-0.11619
G1 X139.903 Y79.022 E-0.09963
;WIPE_END
G1 E-0.04000 F2100.000
G1 Z0.600 F10800.000
G1 X135.921 Y73.897
G1 Z0.200
G1 E0.80000 F2100.000
M204 S500
G1 F1200.000
G1 X135.477 Y73.453 E0.01977
G1 X134.942 Y73.453 E0.01685
